X: 32856
T: Port Tom Mor
R: jig
M: 6/8
K: Dmajor
A|:dAF ~E2F|DB,A, D2E|FAB AFA|dAF ~E2F|
EDB, ~E2F|ABd edB|fg~f edB|1 AFE D2z:|2 BAF AFE||
|:~e3 d2 f|edB BAF|~e3 def|edB BAF|
~e3 d2 f|efg fdB|fg~f edB|BAF D2z:|

